X:1
T:Title
%%score 1 2
L:1/8
M:3/2
K:Bb
V:1 treble nm="Grand Piano, Piano"
V:2 bass nm="Grand Piano, Piano"
V:1
 z4 z4[Q:1/4=100] [DF]3 [EG] | [DF]4 [B,D]4 [FB]3 [EG] | [DF]8 [FB]2 [Fc]2 | %3
w: 1.~Rock~ of~|A ges,~ cleft~ for~|me,~ let~ me~|
 [Fd]6 [Gc]2 [FB]2 [EA]2 | [DB]8 [CA]3 [DB] | [Ec]6 [Ec]2 [EA]2 [EF]2 |[M:4/4] [DB]8 | %7
w: hide~ my self~ in~|thee;~ let~ the~|wa ter~ and~ the~|blood,~|
[M:2/4] [CA]3 [DB] |[M:6/4] [Ec]6 [Ec]2 [EA]2 [EF]2 | [DB]6- [DB]2 [DF]3 [EG] | %10
w: from~ thy~|woun ded~ side~ which~|flowed,~ * be~ of~|
[M:4/4] [DF]4 [B,D]4 |[M:2/4] [FB]3 [EG] |[M:6/4] [DF]6- [DF]2 [DB]2 [Ec]2 | %13
w: sin~ the~|dou ble~|cure;~ * save~ from~|
 [Fd]6 [Gc]2 [FB]2 [EA]2 |[M:4/4] [DB]8 |] %15
w: wrath~ and~ make~ me~|pure.~|
V:2
 z4 z4 [B,,B,]3 [B,,B,] | [B,,B,]4 [B,,F,]4 [D,B,]3 [E,B,] | [B,,B,]8 [D,B,]2 [F,A,]2 | %3
 B,6 [E,E]2 [F,D]2 [F,C]2 | [B,,B,]8 F,3 F, | F,6 [F,A,]2 [F,C]2 [F,A,]2 |[M:4/4] [B,,B,]8 | %7
[M:2/4] F,3 [F,B,] |[M:6/4] [F,A,]6 [F,A,]2 [F,C]2 [F,A,]2 | [B,,B,]6- [B,,B,]2 [B,,B,]3 [B,,B,] | %10
[M:4/4] [B,,B,]4 [B,,F,]4 |[M:2/4] [D,B,]3 [E,B,] |[M:6/4] [B,,B,]6- [B,,B,]2 [G,B,]2 [F,A,]2 | %13
 B,6 [E,E]2 [F,D]2 [F,C]2 |[M:4/4] [B,,B,]8 |] %15

